src/assets/favicon.svg

<?xml version="1.0" encoding="UTF-8"?>
<svg width="310px" height="310px" viewBox="0 0 310 310" version="1.1" xmlns="http://www.w3.org/2000/svg" xmlns:xlink="http://www.w3.org/1999/xlink">
    <!-- Generator: Sketch 59.1 (86144) - https://sketch.com -->
    <title>Group 3</title>
    <desc>Created with Sketch.</desc>
    <defs>
        <linearGradient x1="91.9290773%" y1="45.4599376%" x2="-14.0064246%" y2="58.3201969%" id="linearGradient-1">
            <stop stop-color="#7B0000" offset="0%"></stop>
            <stop stop-color="#D20000" offset="33.7585242%"></stop>
            <stop stop-color="#FF3535" offset="99.9076225%"></stop>
        </linearGradient>
    </defs>
    <g id="final" stroke="none" stroke-width="1" fill="none" fill-rule="evenodd">
        <g id="Group-3">
            <rect id="Rectangle" fill="#FFFFFF" x="0" y="0" width="310" height="310" rx="30"></rect>
            <path d="M279,201 C269.606061,194.866667 261.151515,189.755556 253.636364,185.666667 C246.121212,181.577778 238.606061,178.229119 231.090909,175.62069 C236.727273,174.14023 241.424242,172.377778 245.181818,170.333333 C248.939394,168.288889 252.69697,165.222222 256.454545,161.133333 C239.545455,157.044444 227.333333,153.977778 219.818182,151.933333 C212.30303,149.888889 204.787879,147.209962 197.272727,143.896552 L225.454545,131.206897 C212.30303,128.668966 200.090909,127.4 188.818182,127.4 C177.545455,127.4 169.090909,128.422222 163.454545,130.466667 C164.056555,126.764703 164.995949,123.698037 166.272727,121.266667 C167.549506,118.835297 170.367687,114.746408 174.727273,109 C162.189565,112.397194 152.795626,115.46386 146.545455,118.2 C140.295283,120.93614 132.780132,125.271772 124,131.206897 L121.181818,109 C113.658176,127.398796 101.446055,144.776573 84.5454545,161.133333 C64.8181818,180.225806 42.2727273,192.195699 36.6363636,195.064516 C36.6174797,195.074128 36.5986068,195.083825 36.579745,195.093606 L36.5797444,195.093605 C35.2069736,195.805537 34.6712582,197.495523 35.3831905,198.868294 C35.9049926,199.87445 36.9818997,200.46679 38.1110634,200.368729 C80.3481839,196.700687 118.371769,194.866667 152.181818,194.866667 C187.878788,194.866667 230.151515,196.911111 279,201 Z" id="yozh" fill="url(#linearGradient-1)"></path>
        </g>
    </g>
</svg>

<svg width="310" height="310" xmlns="http://www.w3.org/2000/svg"><defs><linearGradient x1="91.929%" y1="45.46%" x2="-14.006%" y2="58.32%" id="a"><stop stop-color="#7B0000" offset="0%"/><stop stop-color="#D20000" offset="33.759%"/><stop stop-color="#FF3535" offset="99.908%"/></linearGradient></defs><g fill="none" fill-rule="evenodd"><rect fill="#FFF" width="310" height="310" rx="30"/><path d="M279 201c-9.394-6.133-17.848-11.244-25.364-15.333-7.515-4.09-15.03-7.438-22.545-10.046 5.636-1.48 10.333-3.243 14.09-5.288 3.758-2.044 7.516-5.11 11.274-9.2-16.91-4.089-29.122-7.155-36.637-9.2-7.515-2.044-15.03-4.723-22.545-8.036l28.182-12.69c-13.152-2.538-25.364-3.807-36.637-3.807s-19.727 1.022-25.363 3.067c.602-3.702 1.54-6.769 2.818-9.2 1.277-2.432 4.095-6.52 8.454-12.267-12.537 3.397-21.931 6.464-28.182 9.2-6.25 2.736-13.765 7.072-22.545 13.007L121.182 109c-7.524 18.399-19.736 35.777-36.637 52.133-19.727 19.093-42.272 31.063-47.909 33.932a2.8 2.8 0 0 0 1.475 5.304c42.237-3.668 80.26-5.502 114.07-5.502 35.698 0 77.97 2.044 126.819 6.133z" fill="url(#a)"/></g></svg>
